X: 5629
T: Butterfly
R: reel
M: 4/4
K: Eminor
BB/B/ BA GE (3EEE & x2 D6|EBEB dBAd|AB/B/ BA GABe|dBAd BE (3EEE|
AB BA GE (3EEE & x2 F3 x3|EBEB dBAd|BB/B/ BA GABe|dBAd BE E2|
(3Bcd ef gfed|(3BBB ge dBAd|Bd ef gg/g/ ga|bage dBAd|
(3Bcd ef gg/g/ ge|(3BBB ge dBAd|(3Bcd ef g2 ga|bage dBAd|

